bicons/scalable/categories/user-group.svg

<?xml version="1.0" encoding="UTF-8" standalone="no"?>
<!-- Created with Inkscape (http://www.inkscape.org/) -->

<svg
   xmlns:dc="http://purl.org/dc/elements/1.1/"
   xmlns:cc="http://creativecommons.org/ns#"
   xmlns:rdf="http://www.w3.org/1999/02/22-rdf-syntax-ns#"
   xmlns:svg="http://www.w3.org/2000/svg"
   xmlns="http://www.w3.org/2000/svg"
   xmlns:sodipodi="http://sodipodi.sourceforge.net/DTD/sodipodi-0.dtd"
   xmlns:inkscape="http://www.inkscape.org/namespaces/inkscape"
   width="210mm"
   height="297mm"
   viewBox="0 0 744.09448819 1052.3622047"
   id="svg2"
   version="1.1"
   inkscape:version="0.91 r13725"
   inkscape:export-xdpi="7.1999736"
   inkscape:export-ydpi="7.1999736"
   sodipodi:docname="user-group.svg"
   inkscape:export-filename="C:\Users\johannes\Documents\Arbeit\RRZE\github3\bicons\32x32\categories\user-group.png">
  <defs
     id="defs4" />
  <sodipodi:namedview
     id="base"
     pagecolor="#ffffff"
     bordercolor="#666666"
     borderopacity="1.0"
     inkscape:pageopacity="0.0"
     inkscape:pageshadow="2"
     inkscape:zoom="0.70710678"
     inkscape:cx="271.94023"
     inkscape:cy="527.57541"
     inkscape:document-units="px"
     inkscape:current-layer="layer1"
     showgrid="false"
     showguides="true"
     inkscape:guide-bbox="true"
     inkscape:window-width="1366"
     inkscape:window-height="721"
     inkscape:window-x="-4"
     inkscape:window-y="-4"
     inkscape:window-maximized="1"
     inkscape:snap-bbox="true"
     inkscape:bbox-paths="true"
     inkscape:bbox-nodes="true"
     inkscape:snap-nodes="false">
    <sodipodi:guide
       position="315.53572,730.17859"
       orientation="0,1"
       id="guide3338" />
    <sodipodi:guide
       position="351.25,330.17858"
       orientation="0,1"
       id="guide3340" />
    <sodipodi:guide
       position="189.10714,408.8393"
       orientation="1,0"
       id="guide3344" />
    <sodipodi:guide
       position="589.04521,468.07945"
       orientation="1,0"
       id="guide3346" />
    <inkscape:grid
       type="xygrid"
       id="grid3440" />
    <sodipodi:guide
       position="589.04521,378.30213"
       orientation="1,0"
       id="guide3411" />
  </sodipodi:namedview>
  <metadata
     id="metadata7">
    <rdf:RDF>
      <cc:Work
         rdf:about="">
        <dc:format>image/svg+xml</dc:format>
        <dc:type
           rdf:resource="http://purl.org/dc/dcmitype/StillImage" />
        <dc:title>user group</dc:title>
        <dc:date>June 2015</dc:date>
        <dc:creator>
          <cc:Agent>
            <dc:title>Johannes Hechler</dc:title>
          </cc:Agent>
        </dc:creator>
        <dc:rights>
          <cc:Agent>
            <dc:title>Johannes Hechler</dc:title>
          </cc:Agent>
        </dc:rights>
        <dc:publisher>
          <cc:Agent>
            <dc:title>RRZE</dc:title>
          </cc:Agent>
        </dc:publisher>
        <dc:contributor>
          <cc:Agent>
            <dc:title>Ute Weber, Hendrik Eggers, Joanna Barbach</dc:title>
          </cc:Agent>
        </dc:contributor>
        <dc:subject>
          <rdf:Bag>
            <rdf:li>user</rdf:li>
            <rdf:li>group</rdf:li>
            <rdf:li>identity management</rdf:li>
            <rdf:li>role</rdf:li>
            <rdf:li>template</rdf:li>
          </rdf:Bag>
        </dc:subject>
        <cc:license
           rdf:resource="http://creativecommons.org/licenses/by-sa/3.0/" />
      </cc:Work>
      <cc:License
         rdf:about="http://creativecommons.org/licenses/by-sa/3.0/">
        <cc:permits
           rdf:resource="http://creativecommons.org/ns#Reproduction" />
        <cc:permits
           rdf:resource="http://creativecommons.org/ns#Distribution" />
        <cc:requires
           rdf:resource="http://creativecommons.org/ns#Notice" />
        <cc:requires
           rdf:resource="http://creativecommons.org/ns#Attribution" />
        <cc:permits
           rdf:resource="http://creativecommons.org/ns#DerivativeWorks" />
        <cc:requires
           rdf:resource="http://creativecommons.org/ns#ShareAlike" />
      </cc:License>
    </rdf:RDF>
  </metadata>
  <g
     inkscape:label="Ebene 1"
     inkscape:groupmode="layer"
     id="layer1">
    <path
       inkscape:connector-curvature="0"
       style="fill:#4e505d;fill-opacity:1;stroke:none;stroke-width:41.15159225;stroke-linecap:round;stroke-linejoin:round;stroke-opacity:1"
       d="m 484.21766,322.18377 c -26.11664,4e-5 -47.28703,21.21213 -47.28711,47.37891 6e-5,26.1668 21.17045,47.37886 47.28711,47.3789 26.11666,-3e-5 47.289,-21.2121 47.28906,-47.3789 -8e-5,-26.16679 -21.17242,-47.37888 -47.28906,-47.37891 z m -28.25391,105.34961 0,0.004 c -0.0875,0.077 -0.16753,0.16122 -0.25781,0.23632 l -4.87305,2.63868 c -0.13545,0.0802 -0.26724,0.16715 -0.40234,0.24804 0.1041,1.49684 0.17578,3.00191 0.17578,4.52344 -4e-5,18.61338 -7.96284,35.46721 -20.59375,47.41992 31.22437,19.4929 53.57082,55.0704 58.75781,101.19727 l 58.57617,0 0,-0.01 c 9.71798,-0.1372 17.90429,-5.42453 20.6543,-12.67383 1.84014,-10.2488 2.82227,-21.00124 2.82227,-32.08984 0,-55.5298 -24.85085,-94.02979 -59.02149,-111.08789 -8.15829,4.5805 -17.56371,7.20703 -27.56445,7.20703 -10.29226,0 -19.95317,-2.78198 -28.27344,-7.61328 z m -44.16015,86.26953 c -4.35356,1.66211 -8.89762,2.9408 -13.58204,3.78906 -0.84417,6.82454 -1.29882,13.96486 -1.29882,21.44141 0,11.3929 1.03964,22.43179 2.97851,32.93359 2.87595,6.4337 10.10158,11.14973 18.75977,11.76563 l 0,0.0684 33.91406,0 C 447.98045,549.65821 432.0658,526.6685 411.8036,513.80295 Z"
       id="path4205" />
    <path
       style="color:#000000;clip-rule:nonzero;display:inline;overflow:visible;visibility:visible;opacity:1;isolation:auto;mix-blend-mode:normal;color-interpolation:sRGB;color-interpolation-filters:linearRGB;solid-color:#000000;solid-opacity:1;fill:none;fill-opacity:1;fill-rule:nonzero;stroke:none;stroke-width:36;stroke-linecap:butt;stroke-linejoin:round;stroke-miterlimit:4;stroke-dasharray:none;stroke-dashoffset:0;stroke-opacity:1;color-rendering:auto;image-rendering:auto;shape-rendering:auto;text-rendering:auto;enable-background:accumulate"
       d="m 189.04375,322.18368 400.00146,0 0,399.99995 -400.00146,0 z"
       id="rect4513"
       inkscape:connector-curvature="0" />
    <path
       inkscape:connector-curvature="0"
       style="fill:#99b000;fill-opacity:1;stroke:none;stroke-width:41.15159225;stroke-linecap:round;stroke-linejoin:round;stroke-opacity:1"
       d="m 385.31922,387.80486 c -26.11664,4e-5 -47.28898,21.21213 -47.28906,47.37891 6e-5,26.1668 21.1724,47.38082 47.28906,47.38086 26.11666,-3e-5 47.28705,-21.21406 47.28711,-47.38086 -8e-5,-26.16679 -21.17047,-47.37888 -47.28711,-47.37891 z m 27.58203,105.75586 c -8.15829,4.5805 -17.56371,7.20703 -27.56445,7.20703 -9.81417,0 -19.05059,-2.53315 -27.10156,-6.95703 1.01841,4.55916 1.57225,9.28563 1.57226,14.13477 -4e-5,18.61392 -7.9641,35.46574 -20.5957,47.41797 29.59228,18.47396 51.19994,51.40425 57.79492,94.06054 l 51.43945,0 0,-0.01 c 9.71798,-0.1372 17.90429,-5.42453 20.6543,-12.67383 1.84014,-10.2488 2.82422,-21.00124 2.82422,-32.08984 0,-55.5298 -24.8528,-94.03175 -59.02344,-111.08985 z m -91.89453,93.00391 c -7.06484,2.69764 -14.6269,4.40588 -22.49219,4.84375 -0.31608,4.29873 -0.49023,8.70778 -0.49023,13.24609 0,11.3929 1.03964,22.4318 2.97851,32.9336 2.87595,6.4337 10.09963,11.14972 18.75782,11.76562 l 0,0.0703 40.86328,0 c -5.73328,-30.23404 -20.80093,-50.91092 -39.61719,-62.85936 z"
       id="path4203" />
    <path
       style="fill:#4e505d;fill-opacity:1;stroke:none;stroke-width:41.15159225;stroke-linecap:round;stroke-linejoin:round;stroke-opacity:1"
       d="m 294.5189,460.56527 c -26.11664,4e-5 -47.28836,21.21238 -47.28844,47.37916 5e-5,26.1668 21.17178,47.37916 47.28844,47.3792 26.11666,-3e-5 47.28839,-21.2124 47.28845,-47.3792 -8e-5,-26.16679 -21.17181,-47.37913 -47.28845,-47.37916 z m -28.25423,105.35296 c -0.0875,0.077 -0.16782,0.1613 -0.2581,0.2364 l -4.87323,2.6398 c -31.78801,18.8309 -53.90959,55.5783 -53.90959,108.6204 0,11.3929 1.03949,22.4315 2.97836,32.9333 2.87595,6.4337 10.10131,11.1493 18.7595,11.7652 l 0,0.07 128.68564,0 0,-0.01 c 9.71798,-0.1372 17.90306,-5.4245 20.65307,-12.6738 1.84014,-10.2488 2.82377,-21.0013 2.82377,-32.0899 0,-55.5298 -24.85239,-94.0309 -59.02303,-111.089 -8.15829,4.5805 -17.56353,7.2076 -27.56427,7.2076 -10.29226,0 -19.95185,-2.7826 -28.27212,-7.6139 z"
       id="path2176"
       inkscape:connector-curvature="0"
       sodipodi:nodetypes="ssssscccsccccccscscc" />
  </g>
</svg>

<?xml version="1.0" encoding="UTF-8" standalone="no"?>
<!-- Created with Inkscape (http://www.inkscape.org/) -->

<svg
   xmlns:dc="http://purl.org/dc/elements/1.1/"
   xmlns:cc="http://creativecommons.org/ns#"
   xmlns:rdf="http://www.w3.org/1999/02/22-rdf-syntax-ns#"
   xmlns:svg="http://www.w3.org/2000/svg"
   xmlns="http://www.w3.org/2000/svg"
   xmlns:xlink="http://www.w3.org/1999/xlink"
   xmlns:sodipodi="http://sodipodi.sourceforge.net/DTD/sodipodi-0.dtd"
   xmlns:inkscape="http://www.inkscape.org/namespaces/inkscape"
   width="210mm"
   height="297mm"
   viewBox="0 0 744.09448819 1052.3622047"
   id="svg2"
   version="1.1"
   inkscape:version="0.91 r13725"
   inkscape:export-xdpi="7.1999736"
   inkscape:export-ydpi="7.1999736"
   sodipodi:docname="user-group.svg"
   inkscape:export-filename="C:\Users\johannes\Documents\Arbeit\RRZE\github3\bicons\32x32\categories\user-group.png">
  <defs
     id="defs4">
    <linearGradient
       inkscape:collect="always"
       id="linearGradient4196">
      <stop
         style="stop-color:#99b000;stop-opacity:1;"
         offset="0"
         id="stop4198" />
      <stop
         style="stop-color:#a9bc24;stop-opacity:1"
         offset="1"
         id="stop4200" />
    </linearGradient>
    <linearGradient
       inkscape:collect="always"
       id="linearGradient4158">
      <stop
         style="stop-color:#4e505d;stop-opacity:1;"
         offset="0"
         id="stop4160" />
      <stop
         style="stop-color:#7a859c;stop-opacity:1"
         offset="1"
         id="stop4162" />
    </linearGradient>
    <linearGradient
       inkscape:collect="always"
       xlink:href="#linearGradient4158"
       id="linearGradient4164"
       x1="276"
       y1="559.36218"
       x2="315"
       y2="478.36221"
       gradientUnits="userSpaceOnUse" />
    <linearGradient
       inkscape:collect="always"
       xlink:href="#linearGradient4158"
       id="linearGradient4172"
       x1="294"
       y1="690.36218"
       x2="330"
       y2="586.36218"
       gradientUnits="userSpaceOnUse" />
    <linearGradient
       inkscape:collect="always"
       xlink:href="#linearGradient4158"
       id="linearGradient4180"
       x1="480"
       y1="401.36221"
       x2="504"
       y2="347.36221"
       gradientUnits="userSpaceOnUse" />
    <linearGradient
       inkscape:collect="always"
       xlink:href="#linearGradient4158"
       id="linearGradient4188"
       x1="449"
       y1="556.36218"
       x2="507"
       y2="438.36221"
       gradientUnits="userSpaceOnUse" />
    <linearGradient
       inkscape:collect="always"
       xlink:href="#linearGradient4196"
       id="linearGradient4202"
       x1="375"
       y1="481.36221"
       x2="393"
       y2="418.36221"
       gradientUnits="userSpaceOnUse" />
    <linearGradient
       inkscape:collect="always"
       xlink:href="#linearGradient4196"
       id="linearGradient4210"
       x1="349"
       y1="637.36218"
       x2="436"
       y2="525.36218"
       gradientUnits="userSpaceOnUse" />
  </defs>
  <sodipodi:namedview
     id="base"
     pagecolor="#ffffff"
     bordercolor="#666666"
     borderopacity="1.0"
     inkscape:pageopacity="0.0"
     inkscape:pageshadow="2"
     inkscape:zoom="0.70710678"
     inkscape:cx="410.38627"
     inkscape:cy="530.59519"
     inkscape:document-units="px"
     inkscape:current-layer="layer1"
     showgrid="false"
     showguides="true"
     inkscape:guide-bbox="true"
     inkscape:window-width="1366"
     inkscape:window-height="721"
     inkscape:window-x="-4"
     inkscape:window-y="-4"
     inkscape:window-maximized="1"
     inkscape:snap-bbox="true"
     inkscape:bbox-paths="true"
     inkscape:bbox-nodes="true"
     inkscape:snap-nodes="false">
    <sodipodi:guide
       position="315.53572,730.17859"
       orientation="0,1"
       id="guide3338" />
    <sodipodi:guide
       position="351.25,330.17858"
       orientation="0,1"
       id="guide3340" />
    <sodipodi:guide
       position="189.10714,408.8393"
       orientation="1,0"
       id="guide3344" />
    <sodipodi:guide
       position="589.04521,468.07945"
       orientation="1,0"
       id="guide3346" />
    <inkscape:grid
       type="xygrid"
       id="grid3440" />
    <sodipodi:guide
       position="589.04521,378.30213"
       orientation="1,0"
       id="guide3411" />
  </sodipodi:namedview>
  <metadata
     id="metadata7">
    <rdf:RDF>
      <cc:Work
         rdf:about="">
        <dc:format>image/svg+xml</dc:format>
        <dc:type
           rdf:resource="http://purl.org/dc/dcmitype/StillImage" />
        <dc:title>user group</dc:title>
        <dc:date>June 2015</dc:date>
        <dc:creator>
          <cc:Agent>
            <dc:title>Johannes Hechler</dc:title>
          </cc:Agent>
        </dc:creator>
        <dc:rights>
          <cc:Agent>
            <dc:title>Johannes Hechler</dc:title>
          </cc:Agent>
        </dc:rights>
        <dc:publisher>
          <cc:Agent>
            <dc:title>RRZE</dc:title>
          </cc:Agent>
        </dc:publisher>
        <dc:contributor>
          <cc:Agent>
            <dc:title>Ute Weber, Hendrik Eggers, Joanna Barbach</dc:title>
          </cc:Agent>
        </dc:contributor>
        <dc:subject>
          <rdf:Bag>
            <rdf:li>user</rdf:li>
            <rdf:li>group</rdf:li>
            <rdf:li>identity management</rdf:li>
            <rdf:li>role</rdf:li>
            <rdf:li>template</rdf:li>
          </rdf:Bag>
        </dc:subject>
        <cc:license
           rdf:resource="http://creativecommons.org/licenses/by-sa/3.0/" />
      </cc:Work>
      <cc:License
         rdf:about="http://creativecommons.org/licenses/by-sa/3.0/">
        <cc:permits
           rdf:resource="http://creativecommons.org/ns#Reproduction" />
        <cc:permits
           rdf:resource="http://creativecommons.org/ns#Distribution" />
        <cc:requires
           rdf:resource="http://creativecommons.org/ns#Notice" />
        <cc:requires
           rdf:resource="http://creativecommons.org/ns#Attribution" />
        <cc:permits
           rdf:resource="http://creativecommons.org/ns#DerivativeWorks" />
        <cc:requires
           rdf:resource="http://creativecommons.org/ns#ShareAlike" />
      </cc:License>
    </rdf:RDF>
  </metadata>
  <g
     inkscape:label="Ebene 1"
     inkscape:groupmode="layer"
     id="layer1">
    <path
       style="fill:url(#linearGradient4188);fill-opacity:1;stroke:none;stroke-width:41.15159225;stroke-linecap:round;stroke-linejoin:round;stroke-opacity:1"
       d="M 455.96289 427.5332 L 455.96289 427.53711 C 455.87539 427.61411 455.79536 427.69834 455.70508 427.77344 L 450.83203 430.41211 C 450.69658 430.49231 450.56479 430.57927 450.42969 430.66016 C 450.53379 432.157 450.60547 433.66206 450.60547 435.18359 C 450.60543 453.79697 442.64263 470.65081 430.01172 482.60352 C 461.23609 502.09642 483.58254 537.67391 488.76953 583.80078 L 547.3457 583.80078 L 547.3457 583.79102 C 557.06368 583.65382 565.24999 578.36649 568 571.11719 C 569.84014 560.86839 570.82227 550.11594 570.82227 539.02734 C 570.82227 483.49754 545.97142 444.99755 511.80078 427.93945 C 503.64249 432.51995 494.23707 435.14648 484.23633 435.14648 C 473.94407 435.14648 464.28316 432.3645 455.96289 427.5332 z M 411.80273 513.80273 C 407.44917 515.46484 402.90512 516.74354 398.2207 517.5918 C 397.37653 524.41634 396.92187 531.55665 396.92188 539.0332 C 396.92188 550.4261 397.96152 561.465 399.90039 571.9668 C 402.77634 578.4005 410.00197 583.11652 418.66016 583.73242 L 418.66016 583.80078 L 452.57422 583.80078 C 447.97959 549.65799 432.06493 526.66828 411.80273 513.80273 z "
       id="path4205" />
    <path
       style="color:#000000;clip-rule:nonzero;display:inline;overflow:visible;visibility:visible;opacity:1;isolation:auto;mix-blend-mode:normal;color-interpolation:sRGB;color-interpolation-filters:linearRGB;solid-color:#000000;solid-opacity:1;fill:none;fill-opacity:1;fill-rule:nonzero;stroke:none;stroke-width:36;stroke-linecap:butt;stroke-linejoin:round;stroke-miterlimit:4;stroke-dasharray:none;stroke-dashoffset:0;stroke-opacity:1;color-rendering:auto;image-rendering:auto;shape-rendering:auto;text-rendering:auto;enable-background:accumulate"
       d="m 189.04375,322.18368 400.00146,0 0,399.99995 -400.00146,0 z"
       id="rect4513"
       inkscape:connector-curvature="0" />
    <path
       style="fill:url(#linearGradient4210);fill-opacity:1;stroke:none;stroke-width:41.15159225;stroke-linecap:round;stroke-linejoin:round;stroke-opacity:1"
       d="M 412.90039 493.56055 C 404.7421 498.14105 395.33668 500.76758 385.33594 500.76758 C 375.52177 500.76758 366.28534 498.23443 358.23438 493.81055 C 359.25279 498.36971 359.80663 503.09617 359.80664 507.94531 C 359.8066 526.55923 351.84254 543.41105 339.21094 555.36328 C 368.80322 573.83724 390.41088 606.76754 397.00586 649.42383 L 448.44531 649.42383 L 448.44531 649.41406 C 458.16329 649.27686 466.3496 643.98953 469.09961 636.74023 C 470.93975 626.49143 471.92383 615.73899 471.92383 604.65039 C 471.92383 549.12059 447.07103 510.61865 412.90039 493.56055 z M 321.00586 586.56445 C 313.94102 589.26209 306.37896 590.97033 298.51367 591.4082 C 298.19759 595.70693 298.02344 600.11599 298.02344 604.6543 C 298.02344 616.0472 299.06308 627.08609 301.00195 637.58789 C 303.8779 644.02159 311.10158 648.73762 319.75977 649.35352 L 319.75977 649.42383 L 360.62305 649.42383 C 354.88977 619.18979 339.82212 598.51289 321.00586 586.56445 z "
       id="path4203" />
    <path
       style="fill:url(#linearGradient4164);fill-opacity:1;stroke:none;stroke-width:41.15159225;stroke-linecap:round;stroke-linejoin:round;stroke-opacity:1"
       d="M 294.51953 460.56445 C 268.40289 460.56449 247.23055 481.77853 247.23047 507.94531 C 247.23052 534.11211 268.40287 555.32418 294.51953 555.32422 C 320.63619 555.32419 341.80658 534.11211 341.80664 507.94531 C 341.80656 481.77852 320.63617 460.56448 294.51953 460.56445 z "
       id="path2176" />
    <path
       sodipodi:nodetypes="cccsccccccscscc"
       inkscape:connector-curvature="0"
       id="path4143"
       d="m 266.26467,565.91823 c -0.0875,0.077 -0.16782,0.1613 -0.2581,0.2364 l -4.87323,2.6398 c -31.78801,18.8309 -53.90959,55.5783 -53.90959,108.6204 0,11.3929 1.03949,22.4315 2.97836,32.9333 2.87595,6.4337 10.10131,11.1493 18.7595,11.7652 l 0,0.07 128.68564,0 0,-0.01 c 9.71798,-0.1372 17.90306,-5.4245 20.65307,-12.6738 1.84014,-10.2488 2.82377,-21.0013 2.82377,-32.0899 0,-55.5298 -24.85239,-94.0309 -59.02303,-111.089 -8.15829,4.5805 -17.56353,7.2076 -27.56427,7.2076 -10.29226,0 -19.95185,-2.7826 -28.27212,-7.6139 z"
       style="fill:url(#linearGradient4172);fill-opacity:1;stroke:none;stroke-width:41.15159225;stroke-linecap:round;stroke-linejoin:round;stroke-opacity:1" />
    <path
       id="path4148"
       d="m 484.21766,322.18377 c -26.11664,4e-5 -47.28703,21.21213 -47.28711,47.37891 6e-5,26.1668 21.17045,47.37886 47.28711,47.3789 26.11666,-3e-5 47.289,-21.2121 47.28906,-47.3789 -8e-5,-26.16679 -21.17242,-47.37888 -47.28906,-47.37891 z"
       style="fill:url(#linearGradient4180);fill-opacity:1;stroke:none;stroke-width:41.15159225;stroke-linecap:round;stroke-linejoin:round;stroke-opacity:1"
       inkscape:connector-curvature="0"
       sodipodi:nodetypes="sssss" />
    <path
       id="path4153"
       d="m 385.31922,387.80486 c -26.11664,4e-5 -47.28898,21.21213 -47.28906,47.37891 6e-5,26.1668 21.1724,47.38082 47.28906,47.38086 26.11666,-3e-5 47.28705,-21.21406 47.28711,-47.38086 -8e-5,-26.16679 -21.17047,-47.37888 -47.28711,-47.37891 z"
       style="fill:url(#linearGradient4202);fill-opacity:1;stroke:none;stroke-width:41.15159225;stroke-linecap:round;stroke-linejoin:round;stroke-opacity:1"
       inkscape:connector-curvature="0"
       sodipodi:nodetypes="sssss" />
  </g>
</svg>
